X:1
T:John Reilly
M:4/4
L:1/8
K:C
 D2 A A- A4| A2 B4A-G| A3 A- A4-| A4 z4| D2 A A- A4-| A2 B4A-G| A8-|\
 A4 z2 D2| A3 A- A4-| A2 AA G2E-D| C8-| C4 z2 E2| G3 G- G4-| G2A-G F3 D|\
 D8-| D8|
